icons/midnadark/actions/24/document-multiple.svg

<?xml version="1.0" encoding="UTF-8" standalone="no"?>
<!-- Created with Inkscape (http://www.inkscape.org/) -->

<svg
   xmlns:dc="http://purl.org/dc/elements/1.1/"
   xmlns:cc="http://creativecommons.org/ns#"
   xmlns:rdf="http://www.w3.org/1999/02/22-rdf-syntax-ns#"
   xmlns:svg="http://www.w3.org/2000/svg"
   xmlns="http://www.w3.org/2000/svg"
   xmlns:sodipodi="http://sodipodi.sourceforge.net/DTD/sodipodi-0.dtd"
   xmlns:inkscape="http://www.inkscape.org/namespaces/inkscape"
   width="22"
   height="22"
   id="svg3869"
   version="1.1"
   inkscape:version="0.91 r13725"
   sodipodi:docname="document-multiple.svg">
  <defs
     id="defs3871" />
  <sodipodi:namedview
     id="base"
     pagecolor="#ffffff"
     bordercolor="#666666"
     borderopacity="1.0"
     inkscape:pageopacity="0.0"
     inkscape:pageshadow="2"
     inkscape:zoom="8"
     inkscape:cx="-1.9375"
     inkscape:cy="1.9992286"
     inkscape:document-units="px"
     inkscape:current-layer="layer1-9"
     showgrid="false"
     fit-margin-top="0"
     fit-margin-left="0"
     fit-margin-right="0"
     fit-margin-bottom="0"
     inkscape:window-width="1366"
     inkscape:window-height="633"
     inkscape:window-x="0"
     inkscape:window-y="33"
     inkscape:window-maximized="1"
     inkscape:showpageshadow="false"
     inkscape:object-nodes="true"
     inkscape:snap-bbox="true"
     showguides="false">
    <inkscape:grid
       type="xygrid"
       id="grid4132" />
    <sodipodi:guide
       position="5,3"
       orientation="0,18"
       id="guide4140" />
    <sodipodi:guide
       position="20,2.0000174"
       orientation="-18,0"
       id="guide4142" />
    <sodipodi:guide
       position="2,21"
       orientation="0,-18"
       id="guide4144" />
    <sodipodi:guide
       position="3,19.000017"
       orientation="16,0"
       id="guide4146" />
    <sodipodi:guide
       position="2,4"
       orientation="0,16"
       id="guide4148" />
    <sodipodi:guide
       position="21,20"
       orientation="-16,0"
       id="guide4150" />
    <sodipodi:guide
       position="2,20"
       orientation="0,-16"
       id="guide4152" />
  </sodipodi:namedview>
  <metadata
     id="metadata3874">
    <rdf:RDF>
      <cc:Work
         rdf:about="">
        <dc:format>image/svg+xml</dc:format>
        <dc:type
           rdf:resource="http://purl.org/dc/dcmitype/StillImage" />
        <dc:title />
      </cc:Work>
    </rdf:RDF>
  </metadata>
  <g
     inkscape:label="Capa 1"
     inkscape:groupmode="layer"
     id="layer1"
     transform="translate(-326,-534.3622)">
    <g
       transform="matrix(1.3409571,0,0,1.3409571,-483.62356,-163.95726)"
       id="layer1-9"
       inkscape:label="Capa 1">
      <g
         id="g3"
         transform="matrix(0.01949637,0,0,0.01949637,606.00265,522.99918)"
         style="fill:#ffffff;fill-opacity:1">
        <g
           id="web_-_browser_tab"
           style="fill:#ffffff;fill-opacity:1">
          <g
             id="g6"
             style="fill:#ffffff;fill-opacity:1">
            <path
               d="m 459,114.75 -420.75,0 C 17.136,114.75 0,131.886 0,153 L 0,573.75 C 0,594.864 17.136,612 38.25,612 L 459,612 c 21.114,0 38.25,-17.136 38.25,-38.25 l 0,-420.75 c 0,-21.114 -17.136,-38.25 -38.25,-38.25 z M 573.75,0 191.25,0 C 170.136,0 153,17.136 153,38.25 l 0,38.25 38.25,0 0,-19.125 c 0,-10.557 8.568,-19.125 19.125,-19.125 l 344.25,0 c 10.557,0 19.125,8.568 19.125,19.125 l 0,344.25 c 0,10.557 -8.568,19.125 -19.125,19.125 l -19.125,0 0,38.25 38.25,0 C 594.864,459 612,441.864 612,420.75 l 0,-382.5 C 612,17.136 594.864,0 573.75,0 Z"
               id="path8"
               inkscape:connector-curvature="0"
               style="fill:#ffffff;fill-opacity:1"
               sodipodi:nodetypes="ssssssssssssccssssssccssss" />
          </g>
        </g>
      </g>
    </g>
  </g>
</svg>

<svg xmlns="http://www.w3.org/2000/svg" viewBox="0 0 22 22"><path d="m459 114.75h-420.75c-21.11 0-38.25 17.14-38.25 38.25v420.75c0 21.11 17.14 38.25 38.25 38.25h420.75c21.11 0 38.25-17.14 38.25-38.25v-420.75c0-21.11-17.14-38.25-38.25-38.25m114.75-114.75h-382.5c-21.11 0-38.25 17.14-38.25 38.25v38.25h38.25v-19.12c0-10.557 8.568-19.12 19.12-19.12h344.25c10.557 0 19.12 8.568 19.12 19.12v344.25c0 10.557-8.568 19.12-19.12 19.12h-19.12v38.25h38.25c21.11 0 38.25-17.14 38.25-38.25v-382.5c0-21.11-17.14-38.25-38.25-38.25" fill="#fff" transform="matrix(.02614 0 0 .02614 3 2.998)"/></svg>
